!!!COM: des Prez, Josquin
!!!CDT: ~1450-1521/08/27
!!!OTL@@LAT: Domine, ne in furore
!!!OTL2@@LAT: Cor meum conturbatum est
!!!AGN: Motet
!!!SCT: NJE 16.6
!!!SCA: New Josquin Edition 16.6
!!!voices: 4
**kern	**text	**kern	**text	**kern	**text	**kern	**text
*staff4	*	*staff3	*	*staff2	*	*staff1	*
*Ivox	*	*Ivox	*	*Ivox	*	*Ivox	*
*I"Bassus	*	*I"Tenor	*	*I"Altus	*	*I"Discantus	*
*I'B	*	*I'T	*	*I'A	*	*I'D	*
*>[A,B]	*	*>[A,B]	*	*>[A,B]	*	*>[A,B]	*
*>Part1[A]	*	*>Part1[A]	*	*>Part1[A]	*	*>Part1[A]	*
*>Part2[B]	*	*>Part2[B]	*	*>Part2[B]	*	*>Part2[B]	*
*clefF4	*	*clefGv2	*	*clefGv2	*	*clefGv2	*
*>A	*	*>A	*	*>A	*	*>A	*
*k[]	*	*k[]	*	*k[]	*	*k[]	*
*M2/1	*	*M2/1	*	*M2/1	*	*M2/1	*
*met(C|)	*	*met(C|)	*	*met(C|)	*	*met(C|)	*
=1-	=1-	=1-	=1-	=1-	=1-	=1-	=1-
0r	.	0r	.	1r	.	1.E	Do-
.	.	.	.	[1E	Do-	.	.
.	.	.	.	.	.	2C/	-mi-
=2	=2	=2	=2	=2	=2	=2	=2
1r	.	1.E	Do-	2E/]	.	0G	-ne,
.	.	.	.	2C/	-mi-	.	.
[1E	Do-	.	.	[1G	-ne,	.	.
.	.	2C/	-mi-	.	.	.	.
=3	=3	=3	=3	=3	=3	=3	=3
2E\]	.	0G	-ne,	1G]	.	1r	.
2C/	-mi-	.	.	.	.	.	.
[1G	-ne,	.	.	1r	.	[1E	ne
=4	=4	=4	=4	=4	=4	=4	=4
1G]	.	0r	.	1.E	ne	2E/]	.
.	.	.	.	.	.	2C/	in
1r	.	.	.	.	.	1G	fu-
.	.	.	.	2C/	in	.	.
=5	=5	=5	=5	=5	=5	=5	=5
1.E	ne	1r	.	1G	fu-	2.E/	-ro-
.	.	.	.	.	.	4F/	-re
.	.	[1E	ne	2E/	-ro-	1G	tu-
2C/	in	.	.	[2G/	-re	.	.
=6	=6	=6	=6	=6	=6	=6	=6
1G	fu-	2E/]	.	2G/]	.	1C	-o
.	.	2C/	in	2C/	tu-	.	.
1E	-ro-	1G	fu-	1C	-o	2r	.
.	.	.	.	.	.	[2c\	ar-
=7	=7	=7	=7	=7	=7	=7	=7
1F	-re	2A/	-ro-	1r	.	2c\]	.
.	.	2.c\	.	.	.	2A/	-gu-
1G	tu-	.	.	2r	.	1d	-as
.	.	8B/L	.	.	.	.	.
.	.	8A/J	.	.	.	.	.
.	.	2B\	-re	[2G/	ar-	.	.
=8	=8	=8	=8	=8	=8	=8	=8
1C	-o	2E/	tu-	2G/]	.	1.c	me,
.	.	2G/	.	2E/	-gu-	.	.
1r	.	1F	.	1A	-as	.	.
.	.	.	.	.	.	4B\	.
.	.	.	.	.	.	4A/	.
=9	=9	=9	=9	=9	=9	=9	=9
2r	.	2.E/	.	1G	me,	2B\	.
1C	ar-	.	.	.	.	2c\	.
.	.	4D/	.	.	.	.	.
.	.	4E/	.	1r	.	2G/	.
.	.	4C/	.	.	.	.	.
2AA/	-gu-	[2c\	.	.	.	[2A/	.
=10	=10	=10	=10	=10	=10	=10	=10
1D	-as	2c\]	.	1r	.	2A/]	.
.	.	2B\	.	.	.	4G/	.
.	.	.	.	.	.	4F/	.
[1C	me,	[1c	-o	2r	.	1E	.
.	.	.	.	[2G/	ar-	.	.
=11	=11	=11	=11	=11	=11	=11	=11
1C]	.	1c]	.	2G/]	.	2r	.
.	.	.	.	2E/	-gu-	1c	ar-
1r	.	1r	.	1A	-as	.	.
.	.	.	.	.	.	2A/	-gu-
=12	=12	=12	=12	=12	=12	=12	=12
1r	.	2r	.	2.G/	me,	1d	-as
.	.	1G	ar-	.	.	.	.
.	.	.	.	4F/	.	.	.
1C	ar-	.	.	4E/	.	2.c\	me,
.	.	.	.	4D/	.	.	.
.	.	2E/	-gu-	[2C/	.	.	.
.	.	.	.	.	.	4B\	.
=13	=13	=13	=13	=13	=13	=13	=13
2AA/	gu-	0A	-as	2C/]	.	4c\	.
.	.	.	.	.	.	4B\	.
1D	-as	.	.	2F/	ar-	4A/	.
.	.	.	.	.	.	4G/	.
.	.	.	.	2D/	-gu-	2F/	.
[2C/	me,	.	.	[2E/	-as	[2c\	ar-
=14	=14	=14	=14	=14	=14	=14	=14
2C/]	.	0G	me,	4E/]	.	4c\]	.
.	.	.	.	4F/	.	4A/	.
4BB/	.	.	.	2.G/	.	2.d\	.
4AA/	.	.	.	.	.	.	.
2BB/	.	.	.	.	.	.	.
.	.	.	.	4F/	.	4c\	-gu-
2C/	.	.	.	2E/	.	[2c\	-as
=15	=15	=15	=15	=15	=15	=15	=15
1GG	ar-	1r	.	1D	.	2c\]	.
.	.	.	.	.	.	2B\	.
2.AA/	.	[1E	ne-	[1C	-me,	2.c\	me,
4BB/	.	.	.	.	.	8B/L	.
.	.	.	.	.	.	8A/J	.
=16	=16	=16	=16	=16	=16	=16	=16
4C/	-gu-	2E/]	.	0C_	.	1G	.
4D\	.	.	.	.	.	.	.
2.E\	-as	2C/	-que	.	.	.	.
.	.	1G	in	.	.	1r	.
4D\	.	.	.	.	.	.	.
4C/	.	.	.	.	.	.	.
4BB/	.	.	.	.	.	.	.
=17	=17	=17	=17	=17	=17	=17	=17
2.C/	.	2.E/	i-	1C]	.	0r	.
8BB/L	.	4F/	-ra	.	.	.	.
8AA/J	.	.	.	.	.	.	.
1BB	.	1G	tu-	1r	.	.	.
=18	=18	=18	=18	=18	=18	=18	=18
0AA	me,	1C	-a,	1r	.	1.A	ne
.	.	1r	.	[1A	ne-	.	.
.	.	.	.	.	.	2F/	que
=19	=19	=19	=19	=19	=19	=19	=19
0r	.	0r	.	2A/]	.	1c	in
.	.	.	.	2F/	-que	.	.
.	.	.	.	1c	in	2.A/	i-
.	.	.	.	.	.	4B\	-ra
=20	=20	=20	=20	=20	=20	=20	=20
1r	.	0r	.	2A/	i-	1c	tu-
.	.	.	.	2c\	-ra	.	.
[1E	ne-	.	.	2B\	tu-	1G	-a,
.	.	.	.	[2G/	.	.	.
=21	=21	=21	=21	=21	=21	=21	=21
2E\]	.	1r	.	2G/]	.	0r	.
2C/	-que	.	.	4F/	.	.	.
.	.	.	.	4E/	.	.	.
1G	in	[1B	ne-	1E	-a,	.	.
=22	=22	=22	=22	=22	=22	=22	=22
1E	i-	2B\]	.	0r	.	0r	.
.	.	2G/	-que	.	.	.	.
1F	-ra	1d	in	.	.	.	.
=23	=23	=23	=23	=23	=23	=23	=23
1G	tu-	1B	i-	1.E	ne	0r	.
2.C/	-a	1c	-ra	.	.	.	.
.	.	.	.	2C/	que	.	.
8BB/L	.	.	.	.	.	.	.
8AA/J	.	.	.	.	.	.	.
=24	=24	=24	=24	=24	=24	=24	=24
1GG	.	1d	tu-	1G	in	1.B	ne
2r	.	1G	-a	1E	i-	.	.
2C/	cor-	.	.	.	.	2G/	que
=25	=25	=25	=25	=25	=25	=25	=25
2D\	-ri-	1r	.	1F	-ra	1d	in
2D\	-pi-	.	.	.	.	.	.
1E	-as	2r	.	1G	tu-	1B	i-
.	.	2G/	cor-	.	.	.	.
=26	=26	=26	=26	=26	=26	=26	=26
1AA	me,	2A/	-ri-	2C/	.	1c	-ra
.	.	2A/	-pi-	2E/	.	.	.
1r	.	1B	-as	1D	.	1d	tu-
=27	=27	=27	=27	=27	=27	=27	=27
2r	.	2G/	me,	1C	-a	1G	-a
2C/	cor-	2c\	cor-	.	.	.	.
2D\	-ri-	2B\	-ri-	2r	.	1r	.
2D\	-pi-	2A/	-pi-	2F/	cor-	.	.
=28	=28	=28	=28	=28	=28	=28	=28
1E	-as	2G/	-as	2G/	-ri-	1r	.
.	.	1E	.	2G/	-pi-	.	.
1AA	me.	.	.	1A	-as	2r	.
.	.	4D/	.	.	.	2c\	cor-
.	.	4C/	.	.	.	.	.
=29	=29	=29	=29	=29	=29	=29	=29
1r	.	1F	.	1D	me,	2d\	-ri-
.	.	.	.	.	.	2d\	pi-
2r	.	1E	me.	1r	.	1e	-as
2C/	cor-	.	.	.	.	.	.
=30	=30	=30	=30	=30	=30	=30	=30
2D\	-ri-	0r	.	2r	.	1A	me,
2D\	-pi-	.	.	2F/	cor-	.	.
1E	-as	.	.	2G/	-ri-	1r	.
.	.	.	.	2G/	-pi-	.	.
=31	=31	=31	=31	=31	=31	=31	=31
1AA	me.	0r	.	1A	-as	2r	.
.	.	.	.	.	.	2c\	cor-
1r	.	.	.	2D/	.	2d\	-ri-
.	.	.	.	[2G/	me.	2d\	-pi-
=32	=32	=32	=32	=32	=32	=32	=32
1r	.	1.G	Quo-	2G/]	.	1.e	-as
.	.	.	.	4F/	.	.	.
.	.	.	.	4E/	.	.	.
[1C	Quo-	.	.	1E	.	.	.
.	.	2G/	-ni-	.	.	4d\	.
.	.	.	.	.	.	4c\	.
=33	=33	=33	=33	=33	=33	=33	=33
2C/]	.	1c	-am	0r	.	0c	me.
2C/	-ni-	.	.	.	.	.	.
1F	-am	[1A	sa-	.	.	.	.
=34	=34	=34	=34	=34	=34	=34	=34
2D\	sa-	2A/]	.	1r	.	2r	.
2E\	-git-	2G/	-gi-	.	.	2G/	Quo-
2F\	te	2F/	-te	2r	.	2A/	-ni-
2G\	tu-	[2E/	.	2G/	Quo-	2B\	-am
=35	=35	=35	=35	=35	=35	=35	=35
1C	-e	2E/]	.	2G/	-ni-	1c	sa-
.	.	4D/	.	2A/	-am	.	.
.	.	4C/	.	.	.	.	.
1r	.	1G	tu-	1B	sa-	1d	-git-
=36	=36	=36	=36	=36	=36	=36	=36
0r	.	1C	-e	1c	-git	1e	-te
.	.	1r	.	2.B\	te	4d\	tu-
.	.	.	.	.	.	4c\	.
.	.	.	.	.	.	4d\	.
.	.	.	.	8A/L	.	4e\	.
.	.	.	.	8G/J	.	.	.
=37	=37	=37	=37	=37	=37	=37	=37
2r	.	0r	.	1A	tu-	2f\	.
2AA/	in-	.	.	.	.	1e	.
1E	-fi-	.	.	[1G	e,	.	.
.	.	.	.	.	.	4d\	.
.	.	.	.	.	.	4c\	.
=38	=38	=38	=38	=38	=38	=38	=38
1E	-xe	1r	.	1G]	.	1B	.
[1F	sunt	2r	.	1r	.	[1A	-e
.	.	2D/	in-	.	.	.	.
=39	=39	=39	=39	=39	=39	=39	=39
2F\]	.	1A	-fi-	0r	.	1A]	.
4E\	.	.	.	.	.	.	.
4D\	.	.	.	.	.	.	.
2C/	.	1A	-xe	.	.	1r	.
2D\	.	.	.	.	.	.	.
=40	=40	=40	=40	=40	=40	=40	=40
2GG/	.	2.B\	sunt	0r	.	1G	in
1G	mi-	.	.	.	.	.	.
.	.	4A/	.	.	.	.	.
.	.	4B\	.	.	.	1d	fi-
.	.	4G/	.	.	.	.	.
4F\	.	[2c\	mi-	.	.	.	.
4E\	.	.	.	.	.	.	.
=41	=41	=41	=41	=41	=41	=41	=41
2.D\	.	2c\]	.	1r	.	1d	-xe
.	.	2B\	.	.	.	.	.
4C/	.	.	.	.	.	.	.
2AA/	.	1c	-hi,	1C	in-	2.e\	sunt
[2C/	.	.	.	.	.	.	.
.	.	.	.	.	.	4d\	.
=42	=42	=42	=42	=42	=42	=42	=42
4C/]	.	2r	.	1G	-fi-	4e\	.
4BB/	.	.	.	.	.	4f\	.
2C/	.	2C/	in	.	.	2.e\	.
1BB	.	2.D/	fi-	1G	-xe	.	.
.	.	.	.	.	.	4d\	.
.	.	.	.	.	.	[2d\	mi-
.	.	4E/	.	.	.	.	.
=43	=43	=43	=43	=43	=43	=43	=43
1AA	.	2F/	.	2.A/	sunt	2d\]	.
.	.	2C/	-xe	.	.	2c#i\	.
.	.	.	.	4G/	.	.	.
1D	-hi,	1F	sunt	4A/	.	1d	-hi,
.	.	.	.	4F/	.	.	.
.	.	.	.	[2A/	.	.	.
=44	=44	=44	=44	=44	=44	=44	=44
0r	.	1E	mi-	4A/]	.	2r	.
.	.	.	.	4G/	.	.	.
.	.	.	.	1G	mi-	2G/	in
.	.	1D	-hi,	.	.	2.A/	fi-
.	.	.	.	2F/	.	.	.
.	.	.	.	.	.	4B\	.
=45	=45	=45	=45	=45	=45	=45	=45
0C	in-	0r	.	0G	-hi,	2c\	.
.	.	.	.	.	.	2G/	-xe
.	.	.	.	.	.	1c	sunt
=46	=46	=46	=46	=46	=46	=46	=46
2.D\	-fi-	0r	.	0r	.	1B	mi-
4E\	.	.	.	.	.	.	.
2F\	.	.	.	.	.	[1A	-hi,
2C/	-xe	.	.	.	.	.	.
=47	=47	=47	=47	=47	=47	=47	=47
1F	sunt	2r	.	1r	.	1A]	.
.	.	2A/	et	.	.	.	.
1E	mi-	2B\	con-	2r	.	1r	.
.	.	2c\	-fir-	2G/	et	.	.
=48	=48	=48	=48	=48	=48	=48	=48
1D	-hi,	1d	-mas-	2.A/	con-	0r	.
.	.	.	.	4B\	-fir-	.	.
2r	.	1e	-ti,	2c\	-mas-	.	.
[2C/	et	.	.	2G/	-ti	.	.
=49	=49	=49	=49	=49	=49	=49	=49
2C/]	.	2r	.	1c	su-	0r	.
2AA/	con-	2E/	et	.	.	.	.
1E	-fir-	1G	con-	1B	-per	.	.
=50	=50	=50	=50	=50	=50	=50	=50
1F	-mas-	2A/	-fir-	1A	me,	0r	.
.	.	1c	-mas-	.	.	.	.
1E	-ti,	.	.	2r	.	.	.
.	.	2B\	-ti,	2G/	et	.	.
=51	=51	=51	=51	=51	=51	=51	=51
2r	.	2.c\	su-	2A/	con-	0r	.
1C	et	.	.	2G/	-fir-	.	.
.	.	8B/L	.	.	.	.	.
.	.	8A/J	.	.	.	.	.
.	.	2G/	.	1c	-mas-	.	.
2AA/	con-	2A/	-per	.	.	.	.
=52	=52	=52	=52	=52	=52	=52	=52
1E	-fir-	2E/	me	2B\	-ti	2r	.
.	.	2.e\	ma-	2G/	su-	1c	et
1F	-mas-	.	.	1A	-per	.	.
.	.	4d\	.	.	.	.	.
.	.	[2d\	-num	.	.	2A/	con-
=53	=53	=53	=53	=53	=53	=53	=53
2.E\	.	4d\]	.	1G	me,	1e	-fir-
.	.	4c\	.	.	.	.	.
.	.	1c	tu-	.	.	.	.
8D/L	.	.	.	.	.	.	.
8C/J	.	.	.	.	.	.	.
1D	.	.	.	1r	.	1f	-mas-
.	.	2B\	.	.	.	.	.
=54	=54	=54	=54	=54	=54	=54	=54
0C	-ti	0c	-am,	2r	.	1e	-ti,
.	.	.	.	1G	et	.	.
.	.	.	.	.	.	2r	.
.	.	.	.	2E/	con-	[2c\	et
=55	=55	=55	=55	=55	=55	=55	=55
0r	.	0r	.	1F	-fir-	2c\]	.
.	.	.	.	.	.	2A/	con-
.	.	.	.	1E	-mas-	1e	-fir-
=56	=56	=56	=56	=56	=56	=56	=56
1r	.	0r	.	1D	-ti	1f	-mas-
2r	.	.	.	1G	su-	[1e	.
[2C/	su-	.	.	.	.	.	.
=57	=57	=57	=57	=57	=57	=57	=57
2C/]	.	0r	.	2E/	-per	2e\]	.
2AA/	-per	.	.	1A	me	4d\	.
.	.	.	.	.	.	4c\	.
1E	me	.	.	.	.	1B	.
.	.	.	.	2G/	.	.	.
=58	=58	=58	=58	=58	=58	=58	=58
1F	ma-	2r	.	1.c	ma-	1A	-ti
.	.	2A/	et	.	.	.	.
1E	-num,	2B\	con-	.	.	2r	.
.	.	2G/	-fir-	2B\	.	2e\	su-
=59	=59	=59	=59	=59	=59	=59	=59
2r	.	1.c	-mas-	2A/	.	1e	-per
1C	su-	.	.	2G/	-num	.	.
.	.	.	.	1A	tu-	2.e\	me
2AA/	-per	2c\	-ti	.	.	.	.
.	.	.	.	.	.	4d\	.
=60	=60	=60	=60	=60	=60	=60	=60
1E	me	1B	su-	1G	am.	4e\	.
.	.	.	.	.	.	4f\	.
.	.	.	.	.	.	2.e\	.
1F	ma-	2A/	-per	1r	.	.	.
.	.	.	.	.	.	4d\	.
.	.	2F/	me	.	.	2d\	ma-
=61	=61	=61	=61	=61	=61	=61	=61
1.E	-num	4G/	ma-	0r	.	2B\	-num
.	.	4F/	.	.	.	.	.
.	.	4E/	.	.	.	2.c\	tu-
.	.	4D/	.	.	.	.	.
.	.	2C/	-num	.	.	.	.
.	.	.	.	.	.	4B\	.
4D\	.	[2E/	tu-	.	.	[2A/	.
4C/	.	.	.	.	.	.	.
=62	=62	=62	=62	=62	=62	=62	=62
1BB	tu-	2E/]	.	1r	.	2A/]	.
.	.	2D/	.	.	.	2G#i/	.
[1AA	-am.	1E	-am.	[1c	Non	[1A	-am.
=63	=63	=63	=63	=63	=63	=63	=63
1AA]	.	1.c	Non	2c\]	.	1A]	.
.	.	.	.	2B\	est	.	.
1r	.	.	.	2A/	sa-	1r	.
.	.	2B\	est	2G/	-ni-	.	.
=64	=64	=64	=64	=64	=64	=64	=64
0r	.	2.A/	sa-	1F	-tas	0r	.
.	.	4G/	-ni-	.	.	.	.
.	.	1F	-tas	[1c	in	.	.
=65	=65	=65	=65	=65	=65	=65	=65
0r	.	1.c	in	2c\]	.	0r	.
.	.	.	.	2B\	car-	.	.
.	.	.	.	2A/	-ne	.	.
.	.	2B\	car-	2G/	me-	.	.
=66	=66	=66	=66	=66	=66	=66	=66
0r	.	2.A/	-ne	1F	-a,	1r	.
.	.	4G/	me-	.	.	.	.
.	.	[1F	-a,	1r	.	[1A	Non
=67	=67	=67	=67	=67	=67	=67	=67
1.D	Non	1F]	.	0r	.	2A/]	.
.	.	.	.	.	.	2G/	est
.	.	1r	.	.	.	2F/	sa-
2C/	est	.	.	.	.	2E/	-ni-
=68	=68	=68	=68	=68	=68	=68	=68
2.BB/	sa-	0r	.	0r	.	1D	-tas
4AA/	-ni-	.	.	.	.	.	.
1GG	-tas	.	.	.	.	[1d	in
=69	=69	=69	=69	=69	=69	=69	=69
1.G	in-	0r	.	0r	.	2d\]	.
.	.	.	.	.	.	2c\	car-
.	.	.	.	.	.	2B\	-ne
2F\	car-	.	.	.	.	2A/	me-
=70	=70	=70	=70	=70	=70	=70	=70
2.E\	-ne	0r	.	1r	.	0G	-a,
4D\	me-	.	.	.	.	.	.
1C	-a,	.	.	2r	.	.	.
.	.	.	.	2G/	a	.	.
=71	=71	=71	=71	=71	=71	=71	=71
2r	.	0r	.	2G/	fa-	0r	.
2C/	a	.	.	2G/	-ci-	.	.
2C/	fa-	.	.	[1c	-e	.	.
2C/	-ci-	.	.	.	.	.	.
=72	=72	=72	=72	=72	=72	=72	=72
1F	-e	0r	.	2c\]	.	0r	.
.	.	.	.	4B\	.	.	.
.	.	.	.	4A/	.	.	.
2E\	i--	.	.	2G/	.	.	.
2D\	-re	.	.	2A/	.	.	.
=73	=73	=73	=73	=73	=73	=73	=73
1G	tu-	2r	.	1E	.	0r	.
.	.	2G/	a	.	.	.	.
[1C	.	2G/	fa-	[1e	i-	.	.
.	.	2G/	-ci-	.	.	.	.
=74	=74	=74	=74	=74	=74	=74	=74
2C/]	.	1c	-e	2e\]	.	0r	.
4BB/	.	.	.	4d\	.	.	.
4AA/	.	.	.	4c\	.	.	.
2GG/	.	2B\	i-	4d\	.	.	.
.	.	.	.	4G/	.	.	.
2FF/	.	2A/	-re	[2c\	.	.	.
=75	=75	=75	=75	=75	=75	=75	=75
1GG	.	1d	tu-	2c\]	.	2r	.
.	.	.	.	2B\	-re	2G/	a-
[1C	-e;	1G	-e,	2.c\	tu-	2G/	-fa-
.	.	.	.	.	.	2G/	-ci-
.	.	.	.	4B\	.	.	.
=76	=76	=76	=76	=76	=76	=76	=76
1C]	.	2r	.	2.A/	.	1c	-e
.	.	2C/	i-	.	.	.	.
.	.	.	.	8G/L	.	.	.
.	.	.	.	8F/J	.	.	.
1r	.	2E/	-re	2G/	.	2B\	i-
.	.	2F/	.	2A/	.	2A/	-re
=77	=77	=77	=77	=77	=77	=77	=77
1r	.	1D	tu-	1F	.	1d	tu-
2r	.	1C	-e;	[1E	-e;	[1G	-e;
2C/	non	.	.	.	.	.	.
=78	=78	=78	=78	=78	=78	=78	=78
0C	est	2r	.	1E]	.	0G]	.
.	.	2c\	non	.	.	.	.
.	.	1c	est	2r	.	.	.
.	.	.	.	2G/	non	.	.
=79	=79	=79	=79	=79	=79	=79	=79
1AA	pax,	0c	pax,	1A	est	2r	.
.	.	.	.	.	.	2e\	non
2r	.	.	.	1E	pax,	1e	est
2C/	non	.	.	.	.	.	.
=80	=80	=80	=80	=80	=80	=80	=80
1C	est	2r	.	2r	.	1e	pax,
.	.	2c\	non	2G/	non	.	.
1AA	pax	1c	est	1A	est	2r	.
.	.	.	.	.	.	2e\	non
=81	=81	=81	=81	=81	=81	=81	=81
1.C	os-	0c	pax	0E	pax	1e	est
.	.	.	.	.	.	1e	pas
2C/	-si-	.	.	.	.	.	.
=82	=82	=82	=82	=82	=82	=82	=82
1D	-bus	2r	.	1.A	os-	0r	.
.	.	1F	os-	.	.	.	.
1F	.	.	.	.	.	.	.
.	.	2D/	-si-	2A/	-si-	.	.
=83	=83	=83	=83	=83	=83	=83	=83
[0E	me-	4C/	-bus	2.c\	-bus	1.e	os-
.	.	4D/	.	.	.	.	.
.	.	4E/	.	.	.	.	.
.	.	4F/	.	8B/L	.	.	.
.	.	.	.	8A/J	.	.	.
.	.	2G/	.	2B\	.	.	.
.	.	2A/	.	2c\	.	2e\	-si-
=84	=84	=84	=84	=84	=84	=84	=84
0E]	.	2G/	me-	2B\	me-	1e	-bus
.	.	2A/	.	1A	.	.	.
.	.	1B	.	.	.	1e	me-
.	.	.	.	2G#i/	.	.	.
=85	=85	=85	=85	=85	=85	=85	=85
1AA	-is,	1A	-is,	[0A	-is,	0c	-is,
2r	.	1r	.	.	.	.	.
2F\	a	.	.	.	.	.	.
=86	=86	=86	=86	=86	=86	=86	=86
2F\	fa-	0r	.	1A]	.	2r	.
2F\	-ci-	.	.	.	.	2c\	a
2E\	-e	.	.	1r	.	2c\	fa-
2F\	pec-	.	.	.	.	2c\	-ci-
=87	=87	=87	=87	=87	=87	=87	=87
2G\	-ca-	0r	.	0r	.	2B\	-e
2A\	to-	.	.	.	.	2c\	pec-
2.D\	-rum	.	.	.	.	1d	-ca-
4E\	.	.	.	.	.	.	.
=88	=88	=88	=88	=88	=88	=88	=88
2F\	me-	0r	.	0r	.	1c	-to-
2.E\	-o-	.	.	.	.	.	.
.	.	.	.	.	.	2B\	-rum
4D\	.	.	.	.	.	.	.
4C/	.	.	.	.	.	[2c\	me-
4BB/	.	.	.	.	.	.	.
=89	=89	=89	=89	=89	=89	=89	=89
0AA	-rum	2r	.	0r	.	4c\]	.
.	.	.	.	.	.	4B\	.
.	.	2c\	a	.	.	4A/	.
.	.	.	.	.	.	4G/	.
.	.	2c\	fa-	.	.	1A	-o-
.	.	2c\	-ci-	.	.	.	.
=90	=90	=90	=90	=90	=90	=90	=90
2r	.	2B\	-e	0r	.	2E/	-rum,
2AA/	a	2c\	pec-	.	.	1A	a
1BB	fa-	1d	-ca-	.	.	.	.
.	.	.	.	.	.	2G/	.
=91	=91	=91	=91	=91	=91	=91	=91
4AA/	-ci-	1c	-to-	0r	.	2.A/	fa-
4BB/	.	.	.	.	.	.	.
4C/	.	.	.	.	.	.	.
4D\	.	.	.	.	.	8G/L	.
.	.	.	.	.	.	8F/J	.
2E\	-e	2B\	-rum	.	.	2G/	.
[2AA/	pec-	[2c\	me-	.	.	2A/	-ci-
=92	=92	=92	=92	=92	=92	=92	=92
2AA/]	.	4c\]	.	1c	a	2E/	-e
.	.	4B\	.	.	.	.	.
2FF/	-ca-	4A/	.	.	.	2.F/	pec-
.	.	4G/	.	.	.	.	.
2FF/	-to-	1A	.	2c\	fa-	.	.
.	.	.	.	.	.	4E/	.
2FF/	-rum	.	.	2c\	-ci-	2F/	.
=93	=93	=93	=93	=93	=93	=93	=93
2GG/	me-	2G/	.	2B\	-e	2D/	-ca-
2AA/	.	1E	.	2c\	pec-	1A	-to-
1BB-i	-o-	.	.	1d	-ca-	.	.
.	.	2D/	.	.	.	2G/	-rum
=94	=94	=94	=94	=94	=94	=94	=94
1AA	-rum,	0E	-o-	1c	-to-	1A	me-
2r	.	.	.	2B\	-rum	2E/	.
2AA/	pec-	.	.	[2c\	me-	[2e\	.
=95	=95	=95	=95	=95	=95	=95	=95
2AA/	-ca-	[0A	-rum.	4c\]	.	4e\]	.
.	.	.	.	4B\	.	4d\	.
2FF/	-to-	.	.	4A/	.	2.f\	.
.	.	.	.	4G/	.	.	.
2C/	-rum	.	.	2A/	.	.	.
.	.	.	.	.	.	4e\	.
2C/	me-	.	.	2E/	.	[2e\	-o-
=96	=96	=96	=96	=96	=96	=96	=96
1D	-o-	0A]	.	1F	-o-	2e\]	.
.	.	.	.	.	.	2d\	.
[1AA	-rum.	.	.	[1E	.	[1e	-rum.
=97	=97	=97	=97	=97	=97	=97	=97
1AA]	.	0r	.	0E_	-rum.	0e_	.
1r	.	.	.	.	.	.	.
=98	=98	=98	=98	=98	=98	=98	=98
1E	Mi-	1r	.	1E]	.	1e]	.
1D	-ser	1B	Mi-	1r	.	1r	.
=99	=99	=99	=99	=99	=99	=99	=99
1.F	fac-	1A	ser	0r	.	0r	.
.	.	[1c	fac-	.	.	.	.
2E\	-tus	.	.	.	.	.	.
=100	=100	=100	=100	=100	=100	=100	=100
1E	sum	2c\]	.	1E	Mi-	1r	.
.	.	2B\	-tus	.	.	.	.
1r	.	1B	sum	1D	-ser	1B	Mi-
=101	=101	=101	=101	=101	=101	=101	=101
0r	.	0r	.	1.F	fac-	1A	-ser
.	.	.	.	.	.	[1c	fac-
.	.	.	.	2E/	-tus	.	.
=102	=102	=102	=102	=102	=102	=102	=102
1E	et	1r	.	1E	sum,	2c\]	.
.	.	.	.	.	.	2B\	-tus
1D	cur-	1B	et	1r	.	1B	sum,
=103	=103	=103	=103	=103	=103	=103	=103
1.F	-va-	1A	cur-	0r	.	0r	.
.	.	[1c	-va-	.	.	.	.
2E\	-tus	.	.	.	.	.	.
=104	=104	=104	=104	=104	=104	=104	=104
1.E	sum	2c\]	.	0r	.	0r	.
.	.	2B\	-tus	.	.	.	.
.	.	[1B	sum	.	.	.	.
2D\	us-	.	.	.	.	.	.
=105	=105	=105	=105	=105	=105	=105	=105
2E\	-que	2B\]	.	0r	.	0r	.
2F\	in	2A/	us-	.	.	.	.
2E\	fi-	2B\	-que	.	.	.	.
4D\	.	2c\	in	.	.	.	.
4C/	.	.	.	.	.	.	.
=106	=106	=106	=106	=106	=106	=106	=106
1BB	.	1d	fi-	1r	.	0r	.
2AA/	.	[1c	-nem,	1A	mi-	.	.
[2C/	.	.	.	.	.	.	.
=107	=107	=107	=107	=107	=107	=107	=107
4C/]	.	1c]	.	1G	-ser	1e	mi-
4BB/	.	.	.	.	.	.	.
2C/	.	.	.	.	.	.	.
1GG	-nem,	1r	.	[1B-i	fac-	1d	-ser
=108	=108	=108	=108	=108	=108	=108	=108
1D	.	0r	.	2B-\]	.	1.f	fac-
.	.	.	.	2A/	-tus	.	.
1r	.	.	.	1A	sum	.	.
.	.	.	.	.	.	2e\	-tus
=109	=109	=109	=109	=109	=109	=109	=109
0r	.	0r	.	1r	.	1e	sum
.	.	.	.	1A	et	1r	.
=110	=110	=110	=110	=110	=110	=110	=110
0r	.	0r	.	1G	cur-	1e	et
.	.	.	.	[1B-i	-va-	1d	cur-
=111	=111	=111	=111	=111	=111	=111	=111
0r	.	0r	.	2B-\]	.	1.f	-va-
.	.	.	.	2A/	-tus	.	.
.	.	.	.	[1A	sum	.	.
.	.	.	.	.	.	2e\	-tus
=112	=112	=112	=112	=112	=112	=112	=112
0r	.	0r	.	2A/]	.	1.e	sum
.	.	.	.	2G/	us-	.	.
.	.	.	.	2A/	-que	.	.
.	.	.	.	2B-i\	in	2d\	us-
=113	=113	=113	=113	=113	=113	=113	=113
1r	.	0r	.	1A	fi-	2e\	que
.	.	.	.	.	.	2f\	in
1C	to-	.	.	1G	-nem,	2.e\	fi-
.	.	.	.	.	.	8d\L	.
.	.	.	.	.	.	8c\J	.
=114	=114	=114	=114	=114	=114	=114	=114
2D\	-ta	2r	.	0r	.	1B	.
2E\	di-	2G/	to-	.	.	.	.
1F	e	2A/	-ta	.	.	1A	-nem,
.	.	[2c\	di-	.	.	.	.
=115	=115	=115	=115	=115	=115	=115	=115
1C	con-	4c\]	.	2r	.	0r	.
.	.	4B\	.	.	.	.	.
.	.	4c\	.	2E/	to-	.	.
.	.	8B/L	.	.	.	.	.
.	.	8A/J	.	.	.	.	.
2D\	-tris-	1B	.	2F/	-ta	.	.
2E\	-ta-	.	.	2G/	di-	.	.
=116	=116	=116	=116	=116	=116	=116	=116
2AA/	-tus	1A	-e,	1A	-e,	2r	.
1D	in-	.	.	.	.	2A/	to-
.	.	1r	.	2r	.	2B\	ta
2C/	-gre-	.	.	2E/	to-	2c\	di-
=117	=117	=117	=117	=117	=117	=117	=117
1BB	-di-	2r	.	2F/	-ta	1d	-e,
.	.	2D/	to-	2G/	di-	.	.
1AA	-e-	2E/	-ta	1A	-e,	2r	.
.	.	2F/	di-	.	.	2c\	to-
=118	=118	=118	=118	=118	=118	=118	=118
1GG	-bar,	2D/	-e	1r	.	2d\	-ta
.	.	2G/	con-	.	.	2e\	di-
1r	.	2A/	-tris-	2r	.	1f	-e
.	.	2B\	.	2D/	to-	.	.
=119	=119	=119	=119	=119	=119	=119	=119
2r	.	1c	-ta-	2.E/	-ta	2.e\	con-
2AA/	to-	.	.	.	.	.	.
.	.	.	.	4F/	di-	4d\	.
2BB/	-ta	2B\	-tus	1G	-e	2d\	-tris-
2C/	di-	[2e\	in-	.	.	[2c\	-ta-
=120	=120	=120	=120	=120	=120	=120	=120
1D	-e	4e\]	.	2r	.	2c\]	.
.	.	4d\	.	.	.	.	.
.	.	2d\	-gre-	2D/	con-	2B\	.
2r	.	1c	-di-	2E/	-tris-	2c\	-tus
2AA/	con-	.	.	2F/	.	[2f\	in-
=121	=121	=121	=121	=121	=121	=121	=121
2BB/	-tris-	2B\	-e-	2G/	-ta-	4f\]	.
.	.	.	.	.	.	4e\	.
2C/	-ta-	2.A/	.	2E/	-tus	1e	-gre-
1D	-tus	.	.	2.F/	in-	.	.
.	.	4G/	.	.	.	.	.
.	.	4A/	.	.	.	2d\	-di-
.	.	4B\	.	4E/	.	.	.
=122	=122	=122	=122	=122	=122	=122	=122
0AA	in	1c	-bar,	2.E/	-gre-	2.e\	-e-
.	.	.	.	4D/	.	4d\	.
.	.	1c	in-	2E/	-di-	4c\	.
.	.	.	.	.	.	4B\	.
.	.	.	.	[2F/	-e-	[2A/	-bar,
=123	=123	=123	=123	=123	=123	=123	=123
1.C	gre-	2.c\	-gre-	4F/]	.	2A/]	.
.	.	.	.	4E/	.	.	.
.	.	.	.	1E	-bar,	2G/	in-
.	.	4B\	.	.	.	.	.
.	.	2A/	.	.	.	2A/	-gre-
2BB/	-di-	2G/	-di-	2D/	in-	2B\	-di-
=124	=124	=124	=124	=124	=124	=124	=124
1AA	-e-	1A	-e-	2E/	gre-	1c	-e-
.	.	.	.	2F/	-di-	.	.
1GG	.	1B	.	1G	-e-	1d	.
=125	=125	=125	=125	=125	=125	=125	=125
0AAl	-bar.	0Al	-bar.	0El	-bar.	0cl	-bar.
!!LO:LB:i:g=z
=126||	=126||	=126||	=126||	=126||	=126||	=126||	=126||
*>B	*	*>B	*	*>B	*	*>B	*
*M2/1	*	*M2/1	*	*M2/1	*	*M2/1	*
*met(C|)	*	*met(C|)	*	*met(C|)	*	*met(C|)	*
!!section: Secunda pars: Cor meum conturbatum est
!!!OMD: Secunda pars: Cor meum conturbatum est
0r	.	1r	.	0E	Cor	0r	.
.	.	[1E	Cor	.	.	.	.
=127	=127	=127	=127	=127	=127	=127	=127
0r	.	1E]	.	1G	me-	0r	.
.	.	1G	me-	1C	-um	.	.
=128	=128	=128	=128	=128	=128	=128	=128
0r	.	1C	-um	1.c	con-	0r	.
.	.	[1F	con-	.	.	.	.
.	.	.	.	2B\	.	.	.
=129	=129	=129	=129	=129	=129	=129	=129
0r	.	2F/]	.	2A/	.	0r	.
.	.	2E/	.	2G/	-tur-	.	.
.	.	2D/	.	2.A/	-ba-	.	.
.	.	2C/	-tur-	.	.	.	.
.	.	.	.	4G/	.	.	.
=130	=130	=130	=130	=130	=130	=130	=130
0AA	Cor	2.F/	-ba-	4A/	.	0r	.
.	.	.	.	4B\	.	.	.
.	.	.	.	1A	.	.	.
.	.	8E/L	.	.	.	.	.
.	.	8D/J	.	.	.	.	.
.	.	2E/	.	.	.	.	.
.	.	[2A/	.	4G/	.	.	.
.	.	.	.	4F/	.	.	.
=131	=131	=131	=131	=131	=131	=131	=131
1C	me-	2A/]	.	2E/	.	0r	.
.	.	2G/	-tum	2C/	-tum	.	.
1FF	-um	1A	est,	2.c\	est,	.	.
.	.	.	.	4B\	.	.	.
=132	=132	=132	=132	=132	=132	=132	=132
1.F	con-	0r	.	4c\	.	0A	Cor
.	.	.	.	4d\	.	.	.
.	.	.	.	2.c\	con-	.	.
.	.	.	.	4B\	-tur-	.	.
2F\	-tur-	.	.	[2A/	-ba-	.	.
=133	=133	=133	=133	=133	=133	=133	=133
1E	-ba-	1r	.	2A/]	.	1c	me-
.	.	.	.	2G/	-tum	.	.
1D	-tum	1d	de-	1A	est,	1F	-um
=134	=134	=134	=134	=134	=134	=134	=134
0D	est,	2d\	-re-	2r	.	1.f	con-
.	.	2d\	-li-	2A/	de-	.	.
.	.	1d	-quit	1A	-re-	.	.
.	.	.	.	.	.	2f\	-tur-
=135	=135	=135	=135	=135	=135	=135	=135
2r	.	1c	me,	1A	-li-	1e	-ba-
2AA/	de-	.	.	.	.	.	.
2BB/	-re-	1r	.	2D/	-quit	1d	-tum
2GG/	-li-	.	.	[2G/	me	.	.
=136	=136	=136	=136	=136	=136	=136	=136
1D	-quit	2r	.	2G/]	.	0d	est,
.	.	2A/	de-	2F#i/	vir-	.	.
[1GG	me	2B\	-re-	2.G/	-tus	.	.
.	.	2G/	-li-	.	.	.	.
.	.	.	.	4A/	.	.	.
=137	=137	=137	=137	=137	=137	=137	=137
1GG]	.	1d	-quit	4B\	.	2r	.
.	.	.	.	4c\	.	.	.
.	.	.	.	2.d\	me-	2D/	de-
1r	.	1G	me,	.	.	2E/	-re-
.	.	.	.	4c\	.	.	.
.	.	.	.	[2c\	.	2C/	-li-
=138	=138	=138	=138	=138	=138	=138	=138
2r	.	0r	.	4c\]	.	1G	-quit
.	.	.	.	8B/L	.	.	.
.	.	.	.	8A/J	.	.	.
2G\	vir-	.	.	2B\	.	.	.
1G	-tus	.	.	[1E	-a,	1C	me
=139	=139	=139	=139	=139	=139	=139	=139
4G\	me-	0r	.	1E]	.	2r	.
4F\	.	.	.	.	.	.	.
4E\	.	.	.	.	.	2G/	vir-
4D\	.	.	.	.	.	.	.
1F	.	.	.	1r	.	2.A/	-tus
.	.	.	.	.	.	4B\	.
=140	=140	=140	=140	=140	=140	=140	=140
2E\	-a,	0r	.	0r	.	2c\	.
2.F\	me-	.	.	.	.	1d	me-
4E\	.	.	.	.	.	.	.
4D\	.	.	.	.	.	[2c\	.
4C/	.	.	.	.	.	.	.
=141	=141	=141	=141	=141	=141	=141	=141
1D	.	2r	.	0r	.	2c\]	.
.	.	2D/	de-	.	.	2B\	.
2.C/	.	2E/	-re-	.	.	1c	-a,
.	.	2C/	-li-	.	.	.	.
8BB/L	.	.	.	.	.	.	.
8AA/J	.	.	.	.	.	.	.
=142	=142	=142	=142	=142	=142	=142	=142
1GG	-a,	1G	-quit	2r	.	0r	.
.	.	.	.	2D/	de-	.	.
1r	.	2C/	me	2E/	-re-	.	.
.	.	2c\	vir	2C/	-li-	.	.
=143	=143	=143	=143	=143	=143	=143	=143
0r	.	2.d\	-tus	1G	-quit	0r	.
.	.	8c\L	.	.	.	.	.
.	.	8d\J	.	.	.	.	.
.	.	2e\	.	2C/	me	.	.
.	.	[2c\	.	2c\	vir-	.	.
=144	=144	=144	=144	=144	=144	=144	=144
2r	.	2c\]	me-	2.d\	-tus	0r	.
2G\	et	2B\	.	.	.	.	.
.	.	.	.	8c\L	.	.	.
.	.	.	.	8d\J	.	.	.
2E\	lu-	1c	-a,	2e\	.	.	.
2F\	-men	.	.	[2c\	me-	.	.
=145	=145	=145	=145	=145	=145	=145	=145
1G	o-	0r	.	2c\]	.	2r	.
.	.	.	.	2B\	.	2G/	et
2C/	-cu-	.	.	1c	-a,	2E/	lu-
2D\	.	.	.	.	.	2F/	-men
=146	=146	=146	=146	=146	=146	=146	=146
1E	-lo-	0r	.	0r	.	1G	o-
2AA/	-rum	.	.	.	.	2A/	-cu-
[2E\	me-	.	.	.	.	2B\	-lo-
=147	=147	=147	=147	=147	=147	=147	=147
4E\]	.	0r	.	0r	.	2.c\	-rum
4C/	.	.	.	.	.	.	.
2F\	.	.	.	.	.	.	.
.	.	.	.	.	.	4d\	.
2E\	-o-	.	.	.	.	2e\	.
[2D\	.	.	.	.	.	[2f\	me-
=148	=148	=148	=148	=148	=148	=148	=148
2D\]	.	2r	.	1r	.	2f\]	.
2E\	.	2c\	et	.	.	1e	-o-
2F\	.	2A/	lu-	2r	.	.	.
2G\	.	2B\	-men	2G/	et	2d\	.
=149	=149	=149	=149	=149	=149	=149	=149
[0C	-rum	1.c	o-	2E/	lu-	[0e	-rum
.	.	.	.	1G	-men	.	.
.	.	2c\	-cu-	2A/	o-	.	.
=150	=150	=150	=150	=150	=150	=150	=150
1C]	.	1c	-lo-	2G/	-cu-	1e]	.
.	.	.	.	2E/	-lo-	.	.
1r	.	1d	-rum	2F/	-rum	1r	.
.	.	.	.	2G/	me-	.	.
=151	=151	=151	=151	=151	=151	=151	=151
0r	.	2.c\	me-	1A	-o-	2r	.
.	.	.	.	.	.	2c\	et
.	.	8B/L	.	.	.	.	.
.	.	8A/J	.	.	.	.	.
.	.	1B	-o-	1G	-rum	1d	ip-
=152	=152	=152	=152	=152	=152	=152	=152
0r	.	0A	-rum	1r	.	2c\	-sum
.	.	.	.	.	.	2A/	non
.	.	.	.	2r	.	1c	est,
.	.	.	.	2c\	et	.	.
=153	=153	=153	=153	=153	=153	=153	=153
0r	.	0r	.	1d	ip-	1B	me-
.	.	.	.	2c\	-sum	4A/	cum,
.	.	.	.	.	.	4B\	.
.	.	.	.	2A/	non	4c\	.
.	.	.	.	.	.	4d\	.
=154	=154	=154	=154	=154	=154	=154	=154
2r	.	0r	.	1c	est	2e\	.
2F\	et	.	.	.	.	1f	me-
1G	ip-	.	.	1B	me-	.	.
.	.	.	.	.	.	2e\	.
=155	=155	=155	=155	=155	=155	=155	=155
2F\	-sum	0r	.	0A	-cum.	2f\	.
2D\	non	.	.	.	.	4e\	.
.	.	.	.	.	.	4d\	.
1F	est	.	.	.	.	2c\	.
.	.	.	.	.	.	2d\	.
=156	=156	=156	=156	=156	=156	=156	=156
1E	me-	2r	.	0r	.	1e	.
.	.	2c\	et	.	.	.	.
1D	-cum.	1d	ip-	.	.	[1A	-cum.
=157	=157	=157	=157	=157	=157	=157	=157
0r	.	2c\	-sum	2r	.	1A]	.
.	.	2A/	non	1F	Ne	.	.
.	.	1c	est	.	.	1r	.
.	.	.	.	2F/	de-	.	.
=158	=158	=158	=158	=158	=158	=158	=158
0r	.	1B	me-	2D/	-re-	0r	.
.	.	.	.	2E/	lin-	.	.
.	.	1A	-cum.	1F	-quas	.	.
=159	=159	=159	=159	=159	=159	=159	=159
2r	.	0r	.	2.E/	me	0r	.
1C	Ne	.	.	.	.	.	.
.	.	.	.	4F/	.	.	.
.	.	.	.	2G/	.	.	.
2C/	de-	.	.	2E/	do-	.	.
=160	=160	=160	=160	=160	=160	=160	=160
2AA/	-re-	1r	.	2F/	.	0r	.
2BB/	-lin-	.	.	1G	.	.	.
1C	-quas	2r	.	.	.	.	.
.	.	[2G/	Ne	2C/	.	.	.
=161	=161	=161	=161	=161	=161	=161	=161
2GG/	me	2G/]	.	2D/	.	0r	.
1G	do-	2G/	de-	2E/	.	.	.
.	.	2E/	-re-	2C/	.	.	.
2F\	-mi-	2F/	-lin-	[2c\	.	.	.
=162	=162	=162	=162	=162	=162	=162	=162
1E	ne;	1G	-quas	2c\]	.	1r	.
.	.	.	.	2B\	-mi-	.	.
[1AA	.	[1C	me	[1c	-ne;	2r	.
.	.	.	.	.	.	[2c\	Ne
=163	=163	=163	=163	=163	=163	=163	=163
1AA]	.	2C/]	.	1c]	.	2c\]	.
.	.	1c	do-	.	.	2c\	de-
1r	.	.	.	1r	.	2A/	-re-
.	.	2B\	.	.	.	2B\	-lin-
=164	=164	=164	=164	=164	=164	=164	=164
1r	.	1A	-mi-	1r	.	1c	-quas
2r	.	1G	-ne;	2r	.	[1B	me;
2GG/	de-	.	.	2G/	de-	.	.
=165	=165	=165	=165	=165	=165	=165	=165
1GG	-us	2r	.	1B	-us	1B]	.
.	.	2G/	de-	.	.	.	.
1C	me-	2G/	-us	1c	me-	1r	.
.	.	2E/	me-	.	.	.	.
=166	=166	=166	=166	=166	=166	=166	=166
1GG	-us,	0G	-us,	1B	-us,	2r	.
.	.	.	.	.	.	2d\	de-
2r	.	.	.	2r	.	[1d	-us
2GG/	de-	.	.	2G/	de-	.	.
=167	=167	=167	=167	=167	=167	=167	=167
1GG	-us	2r	.	1B	-us	1d]	.
.	.	2G/	de-	.	.	.	.
1C	me-	2G/	-us	1c	me-	1e	me
.	.	2E/	me-	.	.	.	.
=168	=168	=168	=168	=168	=168	=168	=168
[0GG	-us,	0G	-us,	[0B	-us,	1d	-us,
.	.	.	.	.	.	1r	.
=169	=169	=169	=169	=169	=169	=169	=169
0GG]	.	1r	.	0B]	.	1.d	ne
.	.	[1G	ne	.	.	.	.
.	.	.	.	.	.	2B\	dis-
=170	=170	=170	=170	=170	=170	=170	=170
0r	.	2G/]	.	0r	.	2d\	-ces-
.	.	2E/	dis-	.	.	2c\	-se-
.	.	2G/	-ces-	.	.	2B\	-ris
.	.	2F/	-se-	.	.	2A/	a
=171	=171	=171	=171	=171	=171	=171	=171
0r	.	2E/	-ris	1r	.	0B	me.
.	.	2D/	a	.	.	.	.
.	.	[1E	me.	[1G	ne	.	.
=172	=172	=172	=172	=172	=172	=172	=172
1.C	ne	1E]	.	2G/]	.	0r	.
.	.	.	.	2E/	dis	.	.
.	.	1r	.	2G/	-sce-	.	.
2AA/	dis-	.	.	2F/	-se-	.	.
=173	=173	=173	=173	=173	=173	=173	=173
2C/	-ces-	0r	.	2E/	-ris	0r	.
2BB/	-se-	.	.	2D/	a	.	.
2AA/	-ris	.	.	[1E	me.	.	.
2GG/	a	.	.	.	.	.	.
=174	=174	=174	=174	=174	=174	=174	=174
1AA	me.	0r	.	0E]	.	2r	.
.	.	.	.	.	.	2c\	In-
2r	.	.	.	.	.	1c	-ten-
2AA/	In-	.	.	.	.	.	.
=175	=175	=175	=175	=175	=175	=175	=175
1AA	-ten-	2r	.	2r	.	1c	-de
.	.	2E/	In-	2A/	In-	.	.
1AA	-de	1E	-ten-	1A	-ten-	2r	.
.	.	.	.	.	.	2c\	in
=176	=176	=176	=176	=176	=176	=176	=176
2r	.	1E	-de	1A	-de	1.c	ad-
2AA/	in	.	.	.	.	.	.
2AA/	ad-	2r	.	2r	.	.	.
2AA/	-ju-	2E/	in	2A/	in	2c\	-ju-
=177	=177	=177	=177	=177	=177	=177	=177
2AA/	-to-	2E/	ad-	2A/	ad-	1c	-to-
2AA/	-ri-	2E/	-ju-	2A/	-ju-	.	.
1C	-um	2E/	-to-	2A/	-to-	2c\	-ri-
.	.	2E/	-ri-	2A/	-ri-	2c\	-um
=178	=178	=178	=178	=178	=178	=178	=178
1BB	me-	2F/	-um	1B	-um	1d	me-
.	.	2G/	me-	.	.	.	.
[1AA	-um,	[1C	-um,	1c	me-	[1e	-um,
=179	=179	=179	=179	=179	=179	=179	=179
1AA]	.	1C]	.	1A	-um,	1e]	.
1r	.	[1G	do-	1r	.	1r	.
=180	=180	=180	=180	=180	=180	=180	=180
1r	.	2G/]	.	0r	.	0r	.
.	.	2F/	-mi-	.	.	.	.
[1C	do-	1E	-ne	.	.	.	.
=181	=181	=181	=181	=181	=181	=181	=181
2C/]	.	1D	de-	1r	.	0r	.
2BB/	-mi-	.	.	.	.	.	.
1AA	-ne	2.E/	.	[1c	do-	.	.
.	.	4F/	.	.	.	.	.
=182	=182	=182	=182	=182	=182	=182	=182
1GG	de-	2.G/	.	2c\]	.	1r	.
.	.	.	.	2B\	-mi-	.	.
.	.	8F/L	.	.	.	.	.
.	.	8E/J	.	.	.	.	.
1AA	-us,	2F/	.	1A	-ne	[1c	do-
.	.	[2E/	.	.	.	.	.
=183	=183	=183	=183	=183	=183	=183	=183
1r	.	4E/]	.	1G	de-	2c\]	.
.	.	4D/	.	.	.	.	.
.	.	2G/	.	.	.	2B\	-mi-
2r	.	1F	-us,	2A/	-us,	1A	-ne
2AA/	sa-	.	.	2c\	sa-	.	.
=184	=184	=184	=184	=184	=184	=184	=184
2E\	-lu-	1C	.	2c\	-lu-	1G	de-
2E\	-tis	.	.	2c\	-tis	.	.
1F	me-	1r	.	1d	me-	1A	-us,
=185	=185	=185	=185	=185	=185	=185	=185
1.C	-e,	2r	.	0e	-e,	2r	.
.	.	2G/	sa-	.	.	2c\	sa-
.	.	2G/	-lu-	.	.	2c\	-lu-
4BB/	.	2A/	-tis	.	.	2c\	-tis
4AA/	.	.	.	.	.	.	.
=186	=186	=186	=186	=186	=186	=186	=186
1GG	.	1B	me-	1r	.	1d	me-
2.C/	me-	1c	-e,	[1c	do-	[1e	-e,
4D\	.	.	.	.	.	.	.
=187	=187	=187	=187	=187	=187	=187	=187
4E\	.	1r	.	2c\]	.	1e]	.
4F\	.	.	.	.	.	.	.
4G\	.	.	.	2B\	-mi-	.	.
4E\	.	.	.	.	.	.	.
1F	.	[1c	do-	1A	-ne	1r	.
=188	=188	=188	=188	=188	=188	=188	=188
1E	-e,	2c\]	.	1G	de-	0r	.
.	.	2B\	-mi-	.	.	.	.
2r	.	1A	-ne	1A	-us,	.	.
[2F\	do-	.	.	.	.	.	.
=189	=189	=189	=189	=189	=189	=189	=189
2F\]	.	1G	de-	0r	.	1r	.
2E\	-mi-	.	.	.	.	.	.
1D	-ne	[1A	-us,	.	.	[1f	do-
=190	=190	=190	=190	=190	=190	=190	=190
1C	de-	1A]	.	0r	.	2f\]	.
.	.	.	.	.	.	2e\	-mi-
1D	-us,	2r	.	.	.	1d	-ne
.	.	2D/	sa-	.	.	.	.
=191	=191	=191	=191	=191	=191	=191	=191
1AA	.	2A/	-lu-	0r	.	1c	de-
.	.	2A/	-tis	.	.	.	.
1r	.	1B	me-	.	.	1d	-us,
=192	=192	=192	=192	=192	=192	=192	=192
2r	.	1A	-e,	2r	.	0r	.
2AA/	sa-	.	.	2c\	sa-	.	.
2E\	-lu-	1r	.	2c\	-lu-	.	.
2E\	-tis	.	.	2c\	-tis	.	.
=193	=193	=193	=193	=193	=193	=193	=193
1F	me-	2r	.	1d	me-	2r	.
.	.	1A	do-	.	.	2A/	sa-
1C	-e,	.	.	1c	-e,	2e\	-lu-
.	.	2G/	-mi-	.	.	2e\	-tis
=194	=194	=194	=194	=194	=194	=194	=194
1r	.	2A/	-ne	1r	.	1f	me-
.	.	2B\	de-	.	.	.	.
2r	.	1c	-us,	2r	.	1e	-e,
2AA/	sa-	.	.	2c\	sa-	.	.
=195	=195	=195	=195	=195	=195	=195	=195
2E\	-lu-	1r	.	2c\	-lu-	1r	.
2E\	-tis	.	.	2c\	-tis	.	.
1F	me-	2r	.	1d	me-	2r	.
.	.	[2A/	do-	.	.	2A/	sa-
=196	=196	=196	=196	=196	=196	=196	=196
1C	-e,	2A/]	.	1c	-e,	2e\	-lu-
.	.	2G/	-mi-	.	.	2e\	-tis
1r	.	2A/	-ne	1r	.	1f	me-
.	.	2B\	de-	.	.	.	.
=197	=197	=197	=197	=197	=197	=197	=197
2r	.	1c	-us,	2r	.	2.e\	.
2AA/	sa-	.	.	2c\	sa-	.	.
.	.	.	.	.	.	4d\	.
2E\	-lu-	1r	.	2c\	-lu-	2c\	.
2E\	-tis	.	.	2c\	-tis	[2B\	.
=198	=198	=198	=198	=198	=198	=198	=198
1F	me-	2r	.	1d	me-	2B\]	.
.	.	2A/	sa-	.	.	1A	.
1E	-e,	2B\	-lu-	2.e\	-e,	.	.
.	.	2B\	-tis	.	.	2G#i/	.
.	.	.	.	4d\	.	.	.
=199	=199	=199	=199	=199	=199	=199	=199
2r	.	1c	me-	4c\	.	1A	-e,
.	.	.	.	4B\	.	.	.
2AA/	sa-	.	.	2A/	.	.	.
2E\	-lu-	1B	-e,	2A/	sa-	1r	.
2E\	-tis	.	.	2G/	-lu-	.	.
=200	=200	=200	=200	=200	=200	=200	=200
1F	me-	1r	.	2A/	-tis	2r	.
.	.	.	.	2.c\	me-	2C/	sa-
1C	-e,	2r	.	.	.	2E/	-lu-
.	.	.	.	4B\	.	.	.
.	.	2c\	sa-	2G/	.	2E/	-tis
=201	=201	=201	=201	=201	=201	=201	=201
2r	.	2c\	-lu-	1A	.	1F	me-
2FF/	sa-	2c\	-tis	.	.	.	.
1C	-lu-	1c	me-	2.G/	-e,	2.E/	.
.	.	.	.	4A/	.	4F/	.
=202	=202	=202	=202	=202	=202	=202	=202
2BB/	.	2d\	.	2B\	.	2G/	.
2AA/	-tis	2.c\	.	2E/	sa-	2.A/	.
2.F\	me-	.	.	2.A/	-lu-	.	.
.	.	4B\	.	.	.	4B\	.
.	.	2A/	.	.	.	4c\	.
4E\	.	.	.	4B\	.	4d\	.
=203	=203	=203	=203	=203	=203	=203	=203
2E\	.	2G/	-e,	2c\	-tis	4e\	.
.	.	.	.	.	.	4c\	.
1D	-e,	2F/	sa-	2.d\	me-	2.f\	.
.	.	2D/	-lu-	.	.	.	.
.	.	.	.	4c\	.	4e\	.
2GG/	sa-	2E/	-tis	4B\	.	[2e\	.
.	.	.	.	4A/	.	.	.
=204	=204	=204	=204	=204	=204	=204	=204
2AA/	-lu-	1F	me-	2c\	.	2e\]	.
2BB/	-tis	.	.	2B\	.	2d\	.
[1C	me-	1E	-e,	2G/	-e,	[1el	-e.
.	.	.	.	2C/	sa-	.	.
=205	=205	=205	=205	=205	=205	=205	=205
2C/]	.	1.c	me-	1G	-lu-	0e_	.
2BB/	.	.	.	.	.	.	.
2AA/	.	.	.	2A/	.	.	.
2GG/	.	2B\	.	2B\	-tis	.	.
=206	=206	=206	=206	=206	=206	=206	=206
1AA	.	1A	.	2.c\	me-	0e]	.
.	.	.	.	8B/L	.	.	.
.	.	.	.	8A/J	.	.	.
1El	-e.	1Gl	-e.	1Bl	-e.	.	.
==	==	==	==	==	==	==	==
*-	*-	*-	*-	*-	*-	*-	*-
!!!RDF**kern: l=long note in original notation
!!!RDF**kern: i=editorial accidental
!!!ENC: Jesse Rodin; Victoria Chang 2011/05/23
!!!END: 2011/05/23/
!!!EED: Jesse Rodin
!!!EEV: 2012/01/08/
!!!ONB: 2012/01/08/ transposed Discantus an octave down.
!!attribution-level@Jos: 2 (provisionally attributable [parentheses checkmark])
!!!ONB: Translated from MusicXML and edited on 2011/10/20/ by Craig Sapp
!!muse2ps: u^(2) @{OTL2}^C^@{COM}\n@{SCT}^i2I150v90,90,90,120c105z18l2700t130
